icons/24x24_edit_filled.svg

<svg xmlns="http://www.w3.org/2000/svg" width="24" height="24" viewBox="0 0 24 24">
  <path fill-rule="evenodd" d="M13.9072466,5.61435339 L18.3862466,10.0933534 L8.6121,19.8675 L3.7761,20.9835 C3.7271,20.9945 3.6791,20.9995 3.6311,20.9995 C3.2381,20.9995 2.9231,20.6305 3.0171,20.2235 L4.1331,15.3885 L13.9072466,5.61435339 Z M14.6143534,4.90724661 L15.7791,3.7425 C16.2731,3.2475 16.9221,2.9995 17.5701,2.9995 C18.2191,2.9995 18.8671,3.2475 19.3621,3.7425 L20.2581,4.6385 C21.2471,5.6275 21.2471,7.2315 20.2581,8.2215 L19.0933534,9.38624661 L14.6143534,4.90724661 Z"/>
</svg>

<svg width="24" height="24" fill="none" xmlns="http://www.w3.org/2000/svg"><path fill-rule="evenodd" clip-rule="evenodd" d="m13.907 5.614 4.48 4.48-9.775 9.774-4.836 1.116a.633.633 0 0 1-.759-.76l1.116-4.835 9.774-9.775Zm.707-.707 1.165-1.164A2.524 2.524 0 0 1 17.57 3c.65 0 1.297.248 1.792.743l.896.896a2.534 2.534 0 0 1 0 3.583l-1.165 1.164-4.479-4.479Z" fill="#000"/></svg>
